symbolic/32x32/mimetypes/text-x-hex.svg

<svg xmlns="http://www.w3.org/2000/svg" width="32" height="32"><path style="opacity:.2" d="M6.375 3C5.613 3 5 3.624 5 4.4v25.2c0 .775.613 1.4 1.375 1.4h19.25c.761 0 1.375-.625 1.375-1.4V12l-7-2-2-7z"/><path style="fill:#4f4f4f" d="M6.375 2C5.613 2 5 2.624 5 3.4v25.2c0 .775.613 1.4 1.375 1.4h19.25c.761 0 1.375-.625 1.375-1.4V11l-7-2-2-7z"/><path style="opacity:.1;fill:#fff" d="M6.375 2C5.613 2 5 2.625 5 3.4v1C5 3.625 5.613 3 6.375 3H18V2z"/><path style="opacity:.5;fill:#fff" d="M8.5 6c-.277 0-.5.223-.5.5v3c0 .277.223.5.5.5h2c.277 0 .5-.223.5-.5v-3c0-.277-.223-.5-.5-.5zm4.75 0a.25.25 0 0 0-.25.25v3.5c0 .139.111.25.25.25h.5a.25.25 0 0 0 .25-.25v-3.5a.25.25 0 0 0-.25-.25zm2 0a.25.25 0 0 0-.25.25v3.5c0 .139.111.25.25.25h.5a.25.25 0 0 0 .25-.25v-3.5a.25.25 0 0 0-.25-.25zm2.25 0c-.277 0-.5.223-.5.5v3c0 .277.223.5.5.5h2c.277 0 .5-.223.5-.5v-3c0-.277-.223-.5-.5-.5zM9 7h1v2H9zm9 0h1v2h-1zm-8.75 5a.25.25 0 0 0-.25.25v3.5c0 .139.111.25.25.25h.5a.25.25 0 0 0 .25-.25v-3.5a.25.25 0 0 0-.25-.25zm3.25 0c-.277 0-.5.223-.5.5v3c0 .277.223.5.5.5h2c.277 0 .5-.223.5-.5v-3c0-.277-.223-.5-.5-.5zm4.75 0a.249.249 0 0 0-.25.25v3.5c0 .139.111.25.25.25h.5c.139 0 .25-.111.25-.25v-3.5a.249.249 0 0 0-.25-.25zm2 0a.249.249 0 0 0-.25.25v3.5c0 .139.111.25.25.25h.5c.139 0 .25-.111.25-.25v-3.5a.249.249 0 0 0-.25-.25zm2.25 0c-.277 0-.5.223-.5.5v3c0 .277.223.5.5.5h2c.277 0 .5-.223.5-.5v-3c0-.277-.223-.5-.5-.5zM13 13h1v2h-1zm9 0h1v2h-1zM8.5 17c-.277 0-.5.223-.5.5v3c0 .277.223.5.5.5h2c.277 0 .5-.223.5-.5v-3c0-.277-.223-.5-.5-.5zm4 0c-.277 0-.5.223-.5.5v3c0 .277.223.5.5.5h2c.277 0 .5-.223.5-.5v-3c0-.277-.223-.5-.5-.5zm4.75 0a.249.249 0 0 0-.25.25v3.5c0 .139.111.25.25.25h.5c.139 0 .25-.111.25-.25v-3.5a.249.249 0 0 0-.25-.25zm2 0a.249.249 0 0 0-.25.25v3.5c0 .139.111.25.25.25h.5c.139 0 .25-.111.25-.25v-3.5a.249.249 0 0 0-.25-.25zm2.25 0c-.277 0-.5.223-.5.5v3c0 .277.223.5.5.5h2c.277 0 .5-.223.5-.5v-3c0-.277-.223-.5-.5-.5zM9 18h1v2H9zm4 0h1v2h-1zm9 0h1v2h-1zM8.5 23c-.277 0-.5.223-.5.5v3c0 .277.223.5.5.5h2c.277 0 .5-.223.5-.5v-3c0-.277-.223-.5-.5-.5zm4.75 0a.249.249 0 0 0-.25.25v3.5c0 .138.111.25.25.25h.5c.139 0 .25-.111.25-.25v-3.5a.25.25 0 0 0-.25-.25zm2 0a.249.249 0 0 0-.25.25v3.5c0 .138.111.25.25.25h.5c.139 0 .25-.111.25-.25v-3.5a.25.25 0 0 0-.25-.25zm2.25 0c-.277 0-.5.223-.5.5v3c0 .277.223.5.5.5h2c.277 0 .5-.223.5-.5v-3c0-.277-.223-.5-.5-.5zm4.75 0a.25.25 0 0 0-.25.25v3.5c0 .138.111.25.25.25h.5a.25.25 0 0 0 .25-.25v-3.5a.25.25 0 0 0-.25-.25zM9 24h1v2H9zm9 0h1v2h-1z"/><path style="opacity:.2" d="m27 12-9-9v7.594c0 .78.628 1.406 1.406 1.406z"/><path style="fill:#696969" d="m27 11-9-9v7.594c0 .78.628 1.406 1.406 1.406z"/></svg>

<svg xmlns="http://www.w3.org/2000/svg" width="32" height="32" version="1.1">
 <path style="opacity:0.2" d="M 6.375,3 C 5.61325,3 5,3.6244 5,4.4 V 29.6 C 5,30.37504 5.61325,31 6.375,31 h 19.25 C 26.3862,31 27,30.37504 27,29.6 V 12 L 20,10 18,3 Z"/>
 <path style="fill:#4f4f4f" d="M 6.375,2 C 5.61325,2 5,2.6244 5,3.4 V 28.6 C 5,29.37504 5.61325,30 6.375,30 h 19.25 C 26.3862,30 27,29.37504 27,28.6 V 11 L 20,9 18,2 Z"/>
 <path style="opacity:0.1;fill:#ffffff" d="M 6.375,2 C 5.61325,2 5,2.6247906 5,3.4003906 v 1 C 5,3.6247906 5.61325,3 6.375,3 H 18 V 2 Z"/>
 <path style="opacity:0.5;fill:#ffffff" d="M 8.5,6 C 8.223,6 8,6.223 8,6.5 v 3 C 8,9.777 8.223,10 8.5,10 h 2 C 10.777,10 11,9.777 11,9.5 v -3 C 11,6.223 10.777,6 10.5,6 Z m 4.75,0 C 13.111,6 13,6.1115 13,6.25 v 3.5 C 13,9.8885 13.111,10 13.25,10 h 0.5 C 13.889,10 14,9.8885 14,9.75 V 6.25 C 14,6.1115 13.889,6 13.75,6 Z m 2,0 C 15.111,6 15,6.1115 15,6.25 v 3.5 C 15,9.8885 15.111,10 15.25,10 h 0.5 C 15.889,10 16,9.8885 16,9.75 V 6.25 C 16,6.1115 15.889,6 15.75,6 Z M 17.5,6 C 17.223,6 17,6.223 17,6.5 v 3 c 0,0.277 0.223,0.5 0.5,0.5 h 2 C 19.777,10 20,9.777 20,9.5 v -3 C 20,6.223 19.777,6 19.5,6 Z M 9,7 h 1 V 9 H 9 Z m 9,0 h 1 V 9 H 18 Z M 9.25,12 C 9.1115,12 9,12.111 9,12.25 v 3.5 C 9,15.889 9.1115,16 9.25,16 h 0.5 C 9.8885,16 10,15.889 10,15.75 v -3.5 C 10,12.111 9.8885,12 9.75,12 Z m 3.25,0 C 12.223,12 12,12.223 12,12.5 v 3 c 0,0.277 0.223,0.5 0.5,0.5 h 2 c 0.277,0 0.5,-0.223 0.5,-0.5 v -3 C 15,12.223 14.777,12 14.5,12 Z m 4.75,0 C 17.111,12 17,12.111 17,12.25 v 3.5 c 0,0.139 0.111,0.25 0.25,0.25 h 0.5 C 17.889,16 18,15.889 18,15.75 v -3.5 C 18,12.111 17.889,12 17.75,12 Z m 2,0 C 19.111,12 19,12.111 19,12.25 v 3.5 c 0,0.139 0.111,0.25 0.25,0.25 h 0.5 C 19.889,16 20,15.889 20,15.75 v -3.5 C 20,12.111 19.889,12 19.75,12 Z m 2.25,0 C 21.223,12 21,12.223 21,12.5 v 3 c 0,0.277 0.223,0.5 0.5,0.5 h 2 c 0.277,0 0.5,-0.223 0.5,-0.5 v -3 C 24,12.223 23.777,12 23.5,12 Z M 13,13 h 1 v 2 h -1 z m 9,0 h 1 v 2 H 22 Z M 8.5,17 C 8.223,17 8,17.223 8,17.5 v 3 C 8,20.777 8.223,21 8.5,21 h 2 c 0.277,0 0.5,-0.223 0.5,-0.5 v -3 C 11,17.223 10.777,17 10.5,17 Z m 4,0 C 12.223,17 12,17.223 12,17.5 v 3 c 0,0.277 0.223,0.5 0.5,0.5 h 2 c 0.277,0 0.5,-0.223 0.5,-0.5 v -3 C 15,17.223 14.777,17 14.5,17 Z m 4.75,0 C 17.111,17 17,17.111 17,17.25 v 3.5 c 0,0.139 0.111,0.25 0.25,0.25 h 0.5 C 17.889,21 18,20.889 18,20.75 v -3.5 C 18,17.111 17.889,17 17.75,17 Z m 2,0 C 19.111,17 19,17.111 19,17.25 v 3.5 c 0,0.139 0.111,0.25 0.25,0.25 h 0.5 C 19.889,21 20,20.889 20,20.75 v -3.5 C 20,17.111 19.889,17 19.75,17 Z m 2.25,0 C 21.223,17 21,17.223 21,17.5 v 3 c 0,0.277 0.223,0.5 0.5,0.5 h 2 c 0.277,0 0.5,-0.223 0.5,-0.5 v -3 C 24,17.223 23.777,17 23.5,17 Z M 9,18 h 1 v 2 H 9 Z m 4,0 h 1 v 2 h -1 z m 9,0 h 1 v 2 H 22 Z M 8.5,23 C 8.223,23 8,23.223 8,23.5 v 3 C 8,26.777 8.223,27 8.5,27 h 2 c 0.277,0 0.5,-0.223 0.5,-0.5 v -3 C 11,23.223 10.777,23 10.5,23 Z m 4.75,0 C 13.111,23 13,23.111 13,23.25 v 3.5 c 0,0.138 0.111,0.25 0.25,0.25 h 0.5 C 13.889,27 14,26.889 14,26.75 v -3.5 C 14,23.112 13.889,23 13.75,23 Z m 2,0 C 15.111,23 15,23.111 15,23.25 v 3.5 c 0,0.138 0.111,0.25 0.25,0.25 h 0.5 C 15.889,27 16,26.889 16,26.75 v -3.5 C 16,23.112 15.889,23 15.75,23 Z m 2.25,0 C 17.223,23 17,23.223 17,23.5 v 3 c 0,0.277 0.223,0.5 0.5,0.5 h 2 c 0.277,0 0.5,-0.223 0.5,-0.5 v -3 C 20,23.223 19.777,23 19.5,23 Z m 4.75,0 C 22.112,23 22,23.111 22,23.25 v 3.5 c 0,0.138 0.111,0.25 0.25,0.25 h 0.5 C 22.888,27 23,26.889 23,26.75 v -3.5 C 23,23.112 22.889,23 22.75,23 Z M 9,24 h 1 v 2 H 9 Z m 9,0 h 1 v 2 h -1 z"/>
 <path style="opacity:0.2" d="M 27,12 18,3 v 7.59375 C 18,11.373375 18.62775,12 19.40625,12 Z"/>
 <path style="fill:#696969" d="M 27,11 18,2 V 9.59375 C 18,10.373375 18.62775,11 19.40625,11 Z"/>
</svg>
